X: 347
T: The maid of Kinsale
C: anon.
O: Ireland
B: Francis O'Neill: "The Dance Music of Ireland" (1907) no. 347
R: Double jig
Z: Transcribed by Frank Nordberg - http://www.musicaviva.com
F: http://www.musicaviva.com/abc/tunes/ireland/oneill-1001/oneill-1001-034
7.abc
M: 6/8
L: 1/8
K: G
D|GDG ABA|BGB def|(gf)(e d)c(B|c)AA A2D|GDG cB(A|B)G(B d)ef|(gf)(e d)e(c|
B)GG G2:|
||A|Bdg dBG|cBc def|gdB ed(c|B)AA A2B|GcA Bcd|ece gfe|dBd ed(c|B)GG G2:|
W:
W:
W: From Musica Viva - http://www.musicaviva.com
W: the Internet center for free sheet music downloads.


